X:1
T:An dro : B
R:andro
A:Bretagne
M:4/4
L:1/8
K:Am
e2 ef e3 d | c2 B2 A4 | d2 d2 B2 AG | ABcd e4|\
e2 ef e3 d | c2 B2 A4 | d2 d2 B2 AG | ABcB A4 :|
ef g2 A4 | ef g2 B4 | d2 d2 B2 AG |  ABcd e4 |\
ef g2 A4 | ef g2 B4 | d2 d2 B2 AG |  ABcB A4 :|
